X:32
T:Ein Jger aus Kurpfalz...
R:Jger- und Handwerkerlieder
B:Frau Nachtigall (Straburg - 1928)
Z:<anamnese@laposte.net> -- http://anamnese.fr.st
N:p.103
M:2/4
L:1/8
Q:1/4=130
K:F
C | F A A A | A3c | c B B A | A G G F |
E G G G | G2 c2 | A A G G | F2 z2 |:
A | c3 B | A3 c | f c c A | A>G G F |
 E G G G | G2 c2 | A A G G | F2 z2:|
